X:018 
T:Bolton Street (reel)
S:Grier MS
F:file ID: cre.4/018bolton
B:CRE4.018 (Sraid Bolton)
L:1/8
Q:180
M:4/4
R:reel
K:D
"E dorian"
B2BA FAAF|EBBA Beef|dBAF DEFA|BdAF FEE2:|
Eeef defd|BABc defe|dBAF DEFA|BdAF FE E2|
Eeef defd|BABc defe|dBAF DEFA|1 BdAF Edcd:|\
[2 BdAG FEE2 ||

%%%

